static/images/logo-4.svg

<?xml version="1.0" encoding="UTF-8"?>
<svg width="138px" height="37px" viewBox="0 0 138 37" version="1.1" xmlns="http://www.w3.org/2000/svg" xmlns:xlink="http://www.w3.org/1999/xlink">
    <title>github</title>
    <g id="Page-1" stroke="none" stroke-width="1" fill="none" fill-rule="evenodd">
        <g id="github" fill="#fff">
            <path d="M26.3736,15.83544 L14.9124,15.83544 C15.0775856,15.7402412 15.2809744,15.7402412 15.44616,15.83544 L15.44616,21.4164 L19.91736,21.4164 L19.91736,28.35 C19.91736,28.35 18.91344,28.69104 16.13784,28.69104 C12.86328,28.69104 8.28888,27.49968 8.28888,17.48136 C8.28888,7.46088 13.0524,6.14256 17.52408,6.14256 C21.39528,6.14256 23.06256,6.82104 24.12408,7.14816 C24.45768,7.24968 24.76584,6.91944 24.76584,6.62448 L26.04432,1.2324 C26.04432,1.0944 25.99728,0.92808 25.83984,0.81576 C24.8748,1.57728 22.2456,0.11208 15.60384,0.11208 C7.95264,0.11208 0.10392,3.354 0.10392,18.93984 C0.10392,34.52544 9.08976,36.84792 16.66224,36.84792 C22.93176,36.84792 26.73528,34.1796 26.73528,34.1796 C26.892,34.0932 26.90904,33.87528 26.90904,33.77544 L26.90904,16.3692 C26.7438544,16.4643988 26.5404656,16.4643988 26.37528,16.3692 M85.44096,1.97928 C85.2751987,2.07584745 85.0703213,2.07584745 84.90456,1.97928 L78.4512,1.97928 C78.6170961,1.88321316 78.8217039,1.88321316 78.9876,1.97928 L78.98952,14.40048 L68.92992,14.40048 L68.92992,1.97928 C68.7641451,2.07579714 68.5592949,2.07579714 68.39352,1.97928 L61.9404,1.97928 C62.1062961,1.88321316 62.3109039,1.88321316 62.4768,1.97928 L62.4768,35.61216 C62.4768,35.9088 62.71656,36.15024 63.00984,36.15024 L69.46296,36.15024 L69.46296,21.76464 L79.52256,21.76464 L79.5048,36.15024 C79.5048,36.44688 79.74408,36.68832 80.03952,36.68832 L86.508,36.68832 C86.80368,36.68832 87.04008,36.44688 87.0408,36.15024 L87.0408,1.97928 M38.55144,6.39288 C38.55144,4.07832 36.6888,2.20824 34.39032,2.20824 C32.094,2.20824 30.22944,4.07832 30.22944,6.39288 C30.22944,8.7048 32.094,10.57992 34.39032,10.57992 C36.6888,10.57992 38.55144,8.7048 38.55144,6.39288 M38.0904,28.51776 L38.0904,12.99264 C37.9246123,13.088472 37.7202677,13.088472 37.55448,12.99264 L31.12104,12.99264 C30.82608,12.99264 30.56208,13.29576 30.56208,13.59072 L30.56208,35.8332 C30.56208,36.48672 30.97104,36.68136 31.50024,36.68136 L37.29624,36.68136 C37.93224,36.68136 38.08824,36.37008 38.08824,35.82264 L38.08824,29.05368 M109.96656,12.5076 L103.5624,12.5076 C103.728641,12.4112191 103.933759,12.4112191 104.1,12.5076 L104.1,28.99872 C104.1,28.99872 102.4728,30.18408 100.164,30.18408 C97.8552,30.18408 97.24224,29.14056 97.24224,26.88888 L97.24224,13.04496 C97.0760397,13.1414908 96.8708403,13.1414908 96.70464,13.04496 L90.2052,13.04496 C90.3714941,12.9487782 90.5765059,12.9487782 90.7428,13.04496 L90.7428,28.51536 C90.7428,35.20416 94.4856,36.84048 99.63432,36.84048 C103.8588,36.84048 107.26464,34.51608 107.26464,34.51608 C107.26464,34.51608 107.42664,35.74104 107.50032,35.88648 C107.57328,36.0312 107.76432,36.17736 107.9712,36.17736 L112.10592,36.15888 L112.10352,13.5816 C112.10352,13.2852 111.86472,13.044 111.56928,13.044 M124.944,30.70128 C122.72256,30.63408 121.21584,29.63016 121.21584,29.63016 L121.21584,18.97944 C121.21584,18.97944 122.70216,18.072 124.52592,17.90976 C126.83184,17.70432 129.054,18.39768 129.054,23.87688 C129.054,29.6544 128.05128,30.79488 124.94376,30.70128 L124.944,30.70128 Z M127.46952,11.75184 C123.83256,11.75184 121.35864,13.36824 121.35864,13.36824 L121.35864,1.97928 C121.192811,2.07559644 120.988069,2.07559644 120.82224,1.97928 L114.3504,1.97928 C114.516256,1.88306356 114.720944,1.88306356 114.8868,1.97928 L114.8868,35.61216 C114.8868,35.9088 115.12584,36.15024 115.4208,36.15024 L119.9112,36.15024 C120.11328,36.15024 120.2664,36.04656 120.37968,35.86464 C120.49128,35.68416 120.65232,34.314 120.65232,34.314 C120.65232,34.314 123.29832,36.81144 128.30784,36.81144 C134.18952,36.81144 137.56224,33.84024 137.56224,23.47368 C137.56224,13.1064 132.1752,11.75184 128.53536,11.75184 L127.46952,11.75184 Z M56.6376,12.4536 L51.7968,12.4536 L51.7896,6.08448 C51.7896,5.84304 51.6648,5.7228 51.38472,5.7228 L44.78832,5.7228 C44.53152,5.7228 44.394,5.83512 44.394,6.08064 L44.394,12.66264 C44.394,12.66264 41.08824,13.45752 40.86432,13.52184 C41.0239654,13.4345427 41.2170746,13.4345427 41.37672,13.52184 L41.37672,18.1704 C41.37672,18.468 41.61528,18.708 41.91024,18.708 L45.29256,18.708 L45.29256,28.6584 C45.29256,36.0492 50.49792,36.7752 54.01008,36.7752 C55.6152,36.7752 57.5352,36.26184 57.852,36.14544 C58.04376,36.07512 58.15512,35.87712 58.15512,35.66304 L58.16064,31.11312 C58.16064,30.81624 57.90888,30.576 57.62544,30.576 C57.3432,30.576 56.62176,30.69048 55.87872,30.69048 C53.5008,30.69048 52.69536,29.58912 52.69536,28.164 L52.69488,18.708 L57.5364,18.708 C57.83136,18.708 58.07016,18.468 58.07016,18.1704 L58.07016,12.98952 C57.9044392,13.0856008 57.6999608,13.0856008 57.53424,12.98952" id="Shape"></path>
        </g>
    </g>
</svg>

<svg width="138" height="37" viewBox="0 0 138 37" xmlns="http://www.w3.org/2000/svg"><path d="M26.374 15.835H14.912a.534.534 0 01.534 0v5.581h4.471v6.934s-1.004.341-3.78.341c-3.274 0-7.848-1.191-7.848-11.21 0-10.02 4.763-11.338 9.235-11.338 3.871 0 5.539.678 6.6 1.005.334.102.642-.229.642-.524l1.278-5.392a.497.497 0 00-.204-.416c-.965.761-3.594-.704-10.236-.704C7.953.112.104 3.354.104 18.94c0 15.585 8.986 17.908 16.558 17.908 6.27 0 10.073-2.668 10.073-2.668.157-.087.174-.305.174-.405V16.37a.534.534 0 01-.534 0M85.441 1.98a.533.533 0 01-.536 0H78.45a.535.535 0 01.537 0L78.99 14.4H68.93V1.98a.533.533 0 01-.536 0H61.94a.535.535 0 01.537 0v33.632c0 .297.24.538.533.538h6.453V21.765h10.06l-.018 14.385c0 .297.24.538.535.538h6.468a.535.535 0 00.533-.538V1.98M38.55 6.392c0-2.315-1.862-4.185-4.16-4.185-2.297 0-4.162 1.87-4.162 4.185 0 2.312 1.865 4.187 4.161 4.187 2.299 0 4.161-1.875 4.161-4.187m-.46 22.125V12.993a.535.535 0 01-.537 0h-6.433c-.295 0-.559.303-.559.598v22.242c0 .654.409.848.938.848h5.796c.636 0 .792-.31.792-.858v-6.77m71.879-16.545h-6.405a.536.536 0 01.538 0v16.49s-1.627 1.186-3.936 1.186-2.922-1.043-2.922-3.295V13.045a.535.535 0 01-.537 0h-6.5a.537.537 0 01.538 0v15.47c0 6.69 3.743 8.325 8.891 8.325 4.225 0 7.63-2.324 7.63-2.324s.163 1.225.236 1.37c.073.145.264.291.471.291l4.135-.018-.002-22.577a.536.536 0 00-.535-.538m13.375 17.657c-2.221-.067-3.728-1.07-3.728-1.07V18.978s1.486-.907 3.31-1.07c2.306-.205 4.528.489 4.528 5.968 0 5.777-1.003 6.918-4.11 6.824zm2.526-18.95c-3.637 0-6.111 1.617-6.111 1.617V1.98a.534.534 0 01-.537 0h-6.472a.534.534 0 01.537 0v33.633c0 .297.239.538.534.538h4.49c.202 0 .355-.103.469-.285.111-.18.272-1.551.272-1.551s2.646 2.497 7.656 2.497c5.882 0 9.254-2.97 9.254-13.337 0-10.368-5.387-11.722-9.027-11.722h-1.065zm-70.832.703h-4.841l-.007-6.37c0-.241-.125-.361-.405-.361h-6.597c-.256 0-.394.112-.394.358v6.582s-3.306.795-3.53.859a.534.534 0 01.513 0v4.648c0 .298.238.538.533.538h3.383v9.95c0 7.391 5.205 8.117 8.717 8.117 1.605 0 3.525-.513 3.842-.63.192-.07.303-.268.303-.482l.006-4.55a.544.544 0 00-.536-.537c-.282 0-1.003.114-1.746.114-2.378 0-3.184-1.1-3.184-2.526v-9.456h4.841c.295 0 .534-.24.534-.538v-5.18a.534.534 0 01-.536 0" fill="#fff" fill-rule="evenodd"/></svg>
